packages/dnb-ui-lib/assets/icons/owl.svg

<svg width="16" height="16" viewBox="0 0 16 16" fill="none" xmlns="http://www.w3.org/2000/svg">
<path d="M2.93207 2.363L7.81611 1.03263C7.97685 0.989124 8.14626 0.989124 8.307 1.03263L13.1848 2.363L8.307 3.69524C8.14523 3.7391 7.97467 3.73889 7.81301 3.69462L2.93207 2.363ZM2.93207 2.363V4.22776M11.3207 4.94421V2.87253M5.26224 2.99929V4.75345M6.49506 8.25741L8.05845 10.8202L9.62184 8.25741M11.9265 7.61179C12.1989 7.57733 12.4755 7.60089 12.7382 7.68093C13.0008 7.76097 13.2435 7.89568 13.4504 8.0762C13.6573 8.25672 13.8236 8.47898 13.9385 8.72836C14.0534 8.97774 14.1142 9.24861 14.1169 9.52316V10.8063C14.1126 11.2564 14.0147 11.7007 13.8293 12.1108C13.6439 12.521 13.3751 12.8881 13.04 13.1886C12.705 13.4892 12.311 13.7167 11.8832 13.8566C11.4997 13.9821 11.0967 14.0347 10.6947 14.0123H10.5862M4.11704 7.49684C3.8475 7.47468 3.57629 7.50864 3.32053 7.59657C3.06478 7.6845 2.83003 7.8245 2.6311 8.00772C2.43217 8.19094 2.27338 8.41341 2.16476 8.66109C2.05614 8.90877 2.00004 9.17628 2 9.44673V10.7516C1.99991 11.2054 2.09445 11.6541 2.27759 12.0693C2.46073 12.4844 2.72845 12.8568 3.06363 13.1626C3.39882 13.4685 3.7941 13.701 4.22424 13.8454C4.60323 13.9727 5.00194 14.0291 5.40046 14.0123H5.5307M11.7867 11V11.2717C11.7867 12.2605 11.3939 13.2088 10.6947 13.908C10.6592 13.9436 10.623 13.9783 10.5862 14.0123M4.33017 11V11.2717C4.33017 12.2605 4.72297 13.2088 5.42216 13.908C5.45771 13.9436 5.49389 13.9783 5.5307 14.0123M10.5862 14.0123C9.89903 14.6461 8.99699 15 8.05845 15C7.11992 15 6.21787 14.6461 5.5307 14.0123M7.59242 6.55794C7.59242 7.58747 6.75781 8.42207 5.72828 8.42207C4.69874 8.42207 3.86414 7.58747 3.86414 6.55794C3.86414 5.5284 4.69874 4.6938 5.72828 4.6938C6.75781 4.6938 7.59242 5.5284 7.59242 6.55794ZM12.2528 6.55794C12.2528 7.58747 11.4182 8.42207 10.3886 8.42207C9.35909 8.42207 8.52449 7.58747 8.52449 6.55794C8.52449 5.5284 9.35909 4.6938 10.3886 4.6938C11.4182 4.6938 12.2528 5.5284 12.2528 6.55794Z" stroke="black" stroke-width="1.5" stroke-linecap="round" stroke-linejoin="round"/>
<path d="M6.25 6.54982C6.25 6.82596 6.02614 7.04982 5.75 7.04982C5.47386 7.04982 5.25 6.82596 5.25 6.54982C5.25 6.27367 5.47386 6.04982 5.75 6.04982C6.02614 6.04982 6.25 6.27367 6.25 6.54982Z" fill="black"/>
<path d="M10.9 6.5498C10.9 6.82595 10.6761 7.0498 10.4 7.0498C10.1239 7.0498 9.9 6.82595 9.9 6.5498C9.9 6.27366 10.1239 6.0498 10.4 6.0498C10.6761 6.0498 10.9 6.27366 10.9 6.5498Z" fill="black"/>
</svg>

<svg width="16" height="16" viewBox="0 0 16 16" fill="none" xmlns="http://www.w3.org/2000/svg"><path d="M2.932 2.363l4.884-1.33a.94.94 0 01.491 0l4.878 1.33-4.878 1.332a.94.94 0 01-.494 0l-4.88-1.332zm0 0v1.865m8.389.716V2.873m-6.059.126v1.754m1.233 3.504l1.563 2.563 1.564-2.563m2.305-.645a1.947 1.947 0 012.19 1.911v1.283a3.242 3.242 0 01-3.422 3.206h-.109M4.117 7.497A1.957 1.957 0 002 9.447v1.305a3.263 3.263 0 003.4 3.26h.13M11.788 11v.272a3.728 3.728 0 01-1.2 2.74M4.33 11v.272a3.728 3.728 0 001.2 2.74m5.056 0a3.729 3.729 0 01-5.055 0m2.061-7.454a1.864 1.864 0 11-3.728 0 1.864 1.864 0 013.728 0zm4.66 0a1.864 1.864 0 11-3.727 0 1.864 1.864 0 013.728 0z" stroke="#000" stroke-width="1.5" stroke-linecap="round" stroke-linejoin="round"/><path d="M6.25 6.55a.5.5 0 11-1 0 .5.5 0 011 0zM10.9 6.55a.5.5 0 11-1 0 .5.5 0 011 0z" fill="#000"/></svg>
